embeds/assets/images/icons/tenor-via.svg

<svg focusable="false" xmlns="http://www.w3.org/2000/svg" xmlns:xlink="http://www.w3.org/1999/xlink" viewBox="0 0 835 177" height="1.5em">
	<title>
		{{- i18n "tenorVia" -}}
	</title>
	<defs>
			<polygon id="path-1" points="9.33196144e-05 0.136430828 92.9189747 0.136430828 92.9189747 175.842699 9.33196144e-05 175.842699"></polygon>
			<polygon id="path-3" points="0.00015818067 0.38312324 82.7284902 0.38312324 82.7284902 137.280001 0.00015818067 137.280001"></polygon>
	</defs>
	<g id="Page-1" stroke="none" stroke-width="1" fill="none" fill-rule="evenodd">
		<g id="via_tenor_logo_blue">
				<g id="Group-13-Copy-14" transform="translate(209.000000, 0.000000)">
						<path d="M201.399227,97.2809141 C200.80605,92.1400423 199.342878,87.3946222 197.405165,82.7678377 C185.857976,55.6003076 155.843194,54.8884946 140.420579,68.1361257 C132.31382,75.0960752 127.528854,83.9937378 125.156144,94.2754814 C124.918873,95.2245654 124.839783,96.1736494 124.642057,97.2809141 L201.399227,97.2809141 Z M124.20706,117.409404 C125.156144,124.527534 127.212493,130.894306 130.850649,136.628356 C139.392405,150.113258 151.809587,156.519575 167.706745,156.400939 C180.75665,156.321849 191.947932,151.576429 201.596953,142.876492 C206.658734,138.289253 213.776865,139.159246 217.33593,144.656025 C219.906366,148.610541 219.392278,153.395507 215.833213,156.954572 C205.037383,167.750402 192.185203,174.473081 176.960314,176.331704 C166.994932,177.557604 157.069095,177.320333 147.380528,174.3149 C125.314325,167.473586 110.643068,152.841874 104.118115,130.854761 C96.485898,105.031767 100.55905,81.0278503 118.552101,60.3852729 C130.771558,46.4258288 146.589625,39.7822407 165.215399,40.098602 C181.270737,40.3754182 195.269726,45.8326513 206.540099,57.4984757 C215.912304,67.1870417 221.092721,79.0110467 223.465431,92.1400423 C224.374969,97.1227334 224.770421,102.184515 225.007692,107.246296 C225.284508,112.822165 220.93454,117.172133 215.358671,117.448949 C214.567768,117.488495 213.776865,117.448949 212.985961,117.448949 L127.014767,117.448949 C126.223864,117.409404 125.393415,117.409404 124.20706,117.409404 L124.20706,117.409404 Z" id="Fill-1" fill="#007ADD"></path>
						<path d="M496.801628,109.382763 C496.603902,95.8187711 492.689326,84.5088532 484.107629,74.9389227 C466.589515,55.3640648 434.597079,56.115423 417.790383,76.2834584 C403.791394,93.0901545 402.802765,122.74903 419.055829,141.018897 C433.52936,157.311506 459.55008,160.672846 477.26671,148.018392 C490.751217,138.369371 496.406176,124.726288 496.801628,109.382763 M383.465025,107.56329 C383.504723,72.6057578 410.593163,39.7437237 452.036498,39.8226716 C490.672127,39.8623592 520.291457,69.7980509 520.212525,108.710496 C520.133276,146.950673 489.921164,176.767333 451.20605,176.807274 C413.914957,176.807274 383.386088,145.645682 383.465025,107.56329" id="Fill-3" fill="#007ADD"></path>
						<path d="M270.172663,59.0416467 C272.664008,56.6689367 274.680812,54.6521332 276.776706,52.7539651 C286.900269,43.500396 299.00109,39.7040599 312.485992,39.8226954 C323.123246,39.9413309 333.128569,42.3140409 341.986687,48.483087 C352.979848,56.1548495 358.951564,67.0297706 361.284333,79.9610403 C362.036087,84.152828 362.431538,88.4632513 362.470688,92.7341294 C362.589719,116.935772 362.510629,141.097869 362.510629,165.299512 C362.510629,169.926296 359.584286,174.31581 355.273863,175.897616 C350.765714,177.558513 346.534381,176.886246 343.054406,173.406271 C340.602606,170.994016 339.534491,167.949038 339.534491,164.469063 C339.574432,142.046953 339.653522,119.664388 339.455796,97.2422785 C339.416251,92.8132197 338.783528,88.2655255 337.715809,83.9946474 C334.354469,70.905197 324.982265,62.9566183 311.576453,61.4143568 C302.046068,60.3070921 292.990224,61.8098085 285.041646,67.5834029 C274.483086,75.2551654 270.251753,86.1696316 270.212208,98.8240852 C270.133118,120.890289 270.212208,142.996037 270.172663,165.062241 C270.172663,173.524906 261.947268,179.021685 254.117325,175.818526 C249.965082,174.118084 247.157375,169.609935 247.157375,164.548153 L247.157375,129.55068 L247.157375,51.4489746 C247.157375,46.9803707 249.213724,43.5794863 253.01006,41.3649569 C256.925032,39.0713372 260.998184,39.1899727 264.834065,41.6022279 C268.116314,43.6981218 270.093572,46.7430997 270.172663,50.7767068 C270.212208,53.3866878 270.172663,55.9175785 270.172663,59.0416467" id="Fill-5" fill="#007ADD"></path>
						<g id="Group-9" transform="translate(0.000000, 0.259021)">
								<mask id="mask-2" fill="white">
										<use xlink:href="#path-1"></use>
								</mask>
								<g id="Clip-8"></g>
								<path d="M49.1109457,42.0541105 L51.6813816,42.0541105 L80.1539021,42.0541105 C84.4247802,42.2526273 87.9047549,43.6367081 90.1192843,47.4725894 C93.7969848,53.9184517 90.0401939,61.7088497 82.6847928,62.8161143 C81.5379829,62.974295 80.3120828,63.0138402 79.1257277,63.0130493 L51.6418364,63.0130493 L49.0362053,63.0130493 L49.0362053,65.228765 L49.0362053,135.816889 C49.1109457,140.562309 49.8623039,145.110003 53.0654624,148.985034 C55.6754435,152.148648 59.1949634,153.493579 63.0308446,154.086756 C68.7648939,154.996295 74.459398,154.521358 80.0352666,152.78137 C85.334319,151.080928 90.5542811,153.453638 92.3338136,158.396784 C94.1528913,163.41902 91.5824555,168.362166 86.6788547,170.734876 C80.0352666,173.977975 73.0753171,175.401206 65.719916,175.796658 C46.6591453,176.746137 29.5360878,162.905328 26.6492906,144.002738 C26.2538389,141.550938 26.1352034,139.019652 26.1352034,136.528306 C26.0956582,112.998932 26.0956582,89.4695572 26.1000082,65.9401826 L26.1000082,63.211566 C25.2256646,63.1720208 24.5138515,63.0929305 23.8415837,63.0929305 C19.4916153,63.0929305 15.1416469,63.1720208 10.7916785,63.0533853 C3.67354833,62.856055 -0.913691093,57.5174574 0.154028427,50.7943834 C0.905386608,46.0489634 5.21580985,42.4898983 10.6334978,42.3317176 C14.9043759,42.2130821 19.2147991,42.2925679 23.4856772,42.2925679 C26.0956582,42.2925679 26.0956582,42.2925679 26.1000082,39.5635559 L26.1000082,12.0796646 C26.0956582,5.3569861 30.9597138,0.21611434 37.4451213,0.136130456 C43.9305287,0.0579336702 49.0318553,5.2383506 49.0714005,12.0405148 C49.1109457,21.2541434 49.0714005,30.5077126 49.0714005,39.722132 C49.1109457,40.4730948 49.1109457,41.2639981 49.1109457,42.2526273 L49.1109457,42.0541105 Z" id="Fill-7" fill="#007ADD" mask="url(#mask-2)"></path>
						</g>
						<g id="Group-12" transform="translate(542.955148, 39.408737)">
								<mask id="mask-4" fill="white">
										<use xlink:href="#path-3"></use>
								</mask>
								<g id="Clip-11"></g>
								<path d="M23.0945359,28.1351212 C26.4954203,24.2596948 29.5004576,20.4238135 32.9808278,17.0229291 C40.9294064,9.27207631 50.2616705,3.85438838 61.2556225,1.67940417 C64.5770211,1.00713632 68.0569958,0.848955654 71.4582757,1.00713632 C77.904138,1.36304283 82.7286484,6.7411856 82.7286484,13.0684124 C82.7286484,19.3165488 77.8246522,24.6156013 71.4582757,25.2087788 C66.7520053,25.6437756 61.9674355,25.722866 57.3406509,26.7114951 C44.6466522,29.4401117 35.6698992,37.1118742 29.8959093,48.6195179 C24.8341279,58.6639904 23.1340811,69.4993663 23.0945359,80.6115583 C23.0154456,95.4409961 23.0945359,110.270434 23.0945359,125.099872 C23.0945359,131.980731 18.0323591,137.319328 11.5074064,137.280001 C4.94330411,137.240238 0.00015818067,132.138911 0.00015818067,125.258052 L0.00015818067,11.802967 C0.00015818067,6.66209526 3.63831358,1.99576551 8.54151889,0.769865319 C13.9200571,-0.574670373 19.1400192,1.639859 21.4727886,6.58300493 C22.3823275,8.48117296 22.8968101,10.6957023 22.975505,12.8311414 C23.2131714,17.220655 23.0545953,21.6497137 23.0545953,26.0787725 C23.0945359,26.7510403 23.0945359,27.383763 23.0945359,28.1351212" id="Fill-10" fill="#007ADD" mask="url(#mask-4)"></path>
						</g>
				</g>
				<path d="M70.25,73.75 L41.25,140 L29,140 L0,73.75 L12.5,73.75 L35.25,126.875 L58.5,73.75 L70.25,73.75 Z M80.5,73.75 L92.5,73.75 L92.5,140 L80.5,140 L80.5,73.75 Z M138.5,73.125 C147.666713,73.125 154.687476,75.3749775 159.5625,79.875 C164.437524,84.3750225 166.875,91.0832888 166.875,100 L166.875,140 L155.5,140 L155.5,131.25 C153.49999,134.333349 150.645852,136.687492 146.9375,138.3125 C143.229148,139.937508 138.833359,140.75 133.75,140.75 C126.333296,140.75 120.395856,138.958351 115.9375,135.375 C111.479144,131.791649 109.25,127.083363 109.25,121.25 C109.25,115.416637 111.374979,110.729184 115.625,107.1875 C119.875021,103.645816 126.624954,101.875 135.875,101.875 L154.875,101.875 L154.875,99.5 C154.875,94.3333075 153.375015,90.3750138 150.375,87.625 C147.374985,84.8749862 142.958363,83.5 137.125,83.5 C133.208314,83.5 129.375019,84.1458269 125.625,85.4375 C121.874981,86.7291731 118.708346,88.4583225 116.125,90.625 L111.125,81.625 C114.541684,78.8749862 118.624976,76.7708406 123.375,75.3125 C128.125024,73.8541594 133.16664,73.125 138.5,73.125 Z M154.875,110.5 L136.375,110.5 C126.208282,110.5 121.125,113.916633 121.125,120.75 C121.125,124.08335 122.416654,126.708324 125,128.625 C127.583346,130.541676 131.166644,131.5 135.75,131.5 C140.333356,131.5 144.29165,130.479177 147.625,128.4375 C150.95835,126.395823 153.374992,123.500019 154.875,119.75 L154.875,119.75 L154.875,110.5 Z M86.5,45.375 C88.833345,45.375 90.7708256,46.1041594 92.3125,47.5625 C93.8541744,49.0208406 94.625,50.8333225 94.625,53 C94.625,55.2500113 93.8541744,57.1458256 92.3125,58.6875 C90.7708256,60.2291744 88.833345,61 86.5,61 C84.166655,61 82.2291744,60.2500075 80.6875,58.75 C79.1458256,57.2499925 78.375,55.4166775 78.375,53.25 C78.375,51.0833225 79.1458256,49.2291744 80.6875,47.6875 C82.2291744,46.1458256 84.166655,45.375 86.5,45.375 Z" id="via" fill="#007ADD" fill-rule="nonzero"></path>
		</g>
	</g>
</svg>

<svg focusable="false" xmlns="http://www.w3.org/2000/svg" xmlns:xlink="http://www.w3.org/1999/xlink" viewBox="0 0 835 177" height="1em">
  <defs>
    <path id="path-1" d="M0 .136h92.919v175.707H0z"/>
    <path id="path-3" d="M0 .383h82.728V137.28H0z"/>
  </defs>
	<title>{{- i18n "tenor_wordmark_alt" | htmlUnescape | safeHTML -}}</title>
  <g id="Page-1" fill="none" fill-rule="evenodd" stroke="none" stroke-width="1">
    <g id="via_tenor_logo_blue">
      <g id="Group-13-Copy-14" transform="translate(209)">
        <path id="Fill-1" fill="#007ADD" d="M201.4 97.28c-.594-5.14-2.057-9.885-3.995-14.512-11.547-27.168-41.562-27.88-56.984-14.632-8.107 6.96-12.892 15.858-15.265 26.14-.237.949-.316 1.898-.514 3.005H201.4Zm-77.193 20.13c.95 7.118 3.005 13.484 6.644 19.218 8.541 13.485 20.959 19.892 36.856 19.773 13.05-.08 24.24-4.825 33.89-13.525 5.062-4.587 12.18-3.717 15.739 1.78 2.57 3.955 2.056 8.74-1.503 12.299-10.796 10.795-23.648 17.518-38.873 19.377-9.965 1.226-19.89.988-29.58-2.017-22.066-6.841-36.737-21.473-43.262-43.46-7.632-25.823-3.559-49.827 14.434-70.47 12.22-13.96 28.038-20.603 46.663-20.286 16.056.276 30.055 5.734 41.325 17.4 9.372 9.688 14.553 21.512 16.925 34.641.91 4.983 1.305 10.045 1.543 15.106.277 5.576-4.073 9.926-9.65 10.203-.79.04-1.581 0-2.372 0h-85.971c-.791-.04-1.622-.04-2.808-.04Z"/>
        <path id="Fill-3" fill="#007ADD" d="M496.802 109.383c-.198-13.564-4.113-24.874-12.694-34.444-17.518-19.575-49.51-18.824-66.318 1.344-13.999 16.807-14.987 46.466 1.266 64.736 14.473 16.293 40.494 19.654 58.21 7 13.485-9.65 19.14-23.293 19.536-38.636m-113.337-1.82c.04-34.957 27.128-67.82 68.571-67.74 38.636.04 68.255 29.975 68.177 68.887-.08 38.24-30.292 68.057-69.007 68.097-37.291 0-67.82-31.161-67.741-69.244"/>
        <path id="Fill-5" fill="#007ADD" d="M270.173 59.042c2.491-2.373 4.508-4.39 6.604-6.288C286.9 43.5 299 39.704 312.486 39.823c10.637.118 20.643 2.491 29.5 8.66 10.994 7.672 16.966 18.547 19.298 31.478a76.652 76.652 0 0 1 1.187 12.773c.119 24.202.04 48.364.04 72.566 0 4.626-2.927 9.016-7.237 10.598-4.508 1.66-8.74.988-12.22-2.492-2.451-2.412-3.52-5.457-3.52-8.937.04-22.422.12-44.805-.078-67.227-.04-4.429-.672-8.976-1.74-13.247-3.362-13.09-12.734-21.038-26.14-22.58-9.53-1.108-18.586.395-26.534 6.168-10.559 7.672-14.79 18.587-14.83 31.241-.079 22.066 0 44.172-.04 66.238 0 8.463-8.225 13.96-16.055 10.757-4.152-1.7-6.96-6.21-6.96-11.27v-113.1c0-4.469 2.057-7.87 5.853-10.084 3.915-2.294 7.988-2.175 11.824.237 3.282 2.096 5.26 5.141 5.339 9.175.04 2.61 0 5.14 0 8.265"/>
        <g id="Group-9" transform="translate(0 .259)">
          <mask id="mask-2" fill="#fff">
            <use xlink:href="#path-1"/>
          </mask>
          <path id="Fill-7" fill="#007ADD" d="M49.11 42.054h31.044c4.27.199 7.75 1.583 9.965 5.419 3.678 6.445-.079 14.236-7.434 15.343-1.147.158-2.373.198-3.56.197H49.037v72.804c.075 4.745.826 9.293 4.03 13.168 2.61 3.164 6.129 4.509 9.965 5.102 5.734.91 11.428.434 17.004-1.306 5.3-1.7 10.52.673 12.299 5.616 1.819 5.022-.752 9.965-5.655 12.338-6.644 3.243-13.604 4.666-20.96 5.062-19.06.95-36.183-12.892-39.07-31.794-.395-2.452-.514-4.983-.514-7.475-.04-23.53-.04-47.058-.035-70.588v-2.728c-.874-.04-1.586-.12-2.258-.12-4.35 0-8.7.08-13.05-.039C3.674 62.856-.914 57.517.154 50.794c.751-4.745 5.062-8.304 10.48-8.462 4.27-.119 8.58-.04 12.852-.04 2.61 0 2.61 0 2.614-2.728V12.08C26.096 5.357 30.96.216 37.445.136c6.486-.078 11.587 5.102 11.626 11.905.04 9.213 0 18.467 0 27.681.04.751.04 1.542.04 2.53v-.198Z" mask="url(#mask-2)"/>
        </g>
        <g id="Group-12" transform="translate(542.955 39.409)">
          <mask id="mask-4" fill="#fff">
            <use xlink:href="#path-3"/>
          </mask>
          <path id="Fill-10" fill="#007ADD" d="M23.095 28.135c3.4-3.875 6.405-7.711 9.886-11.112 7.948-7.75 17.28-13.169 28.275-15.344 3.321-.672 6.801-.83 10.202-.672 6.446.356 11.27 5.734 11.27 12.061 0 6.249-4.903 11.548-11.27 12.14-4.706.436-9.49.515-14.117 1.503-12.694 2.73-21.671 10.4-27.445 21.909-5.062 10.044-6.762 20.88-6.801 31.992-.08 14.829 0 29.658 0 44.488 0 6.88-5.063 12.22-11.588 12.18C4.943 137.24 0 132.139 0 125.258V11.803C0 6.663 3.638 1.996 8.542.77c5.378-1.345 10.598.87 12.93 5.813.91 1.898 1.425 4.113 1.504 6.248.237 4.39.079 8.819.079 13.248.04.672.04 1.305.04 2.056" mask="url(#mask-4)"/>
        </g>
      </g>
      <path id="via" fill="#007ADD" fill-rule="nonzero" d="m70.25 73.75-29 66.25H29L0 73.75h12.5l22.75 53.125L58.5 73.75h11.75Zm10.25 0h12V140h-12V73.75Zm58-.625c9.167 0 16.187 2.25 21.063 6.75 4.875 4.5 7.312 11.208 7.312 20.125v40H155.5v-8.75c-2 3.083-4.854 5.437-8.563 7.063-3.708 1.625-8.104 2.437-13.187 2.437-7.417 0-13.354-1.792-17.813-5.375-4.458-3.583-6.687-8.292-6.687-14.125s2.125-10.52 6.375-14.063c4.25-3.541 11-5.312 20.25-5.312h19V99.5c0-5.167-1.5-9.125-4.5-11.875s-7.417-4.125-13.25-4.125c-3.917 0-7.75.646-11.5 1.938-3.75 1.291-6.917 3.02-9.5 5.187l-5-9c3.417-2.75 7.5-4.854 12.25-6.313 4.75-1.458 9.792-2.187 15.125-2.187Zm16.375 37.375h-18.5c-10.167 0-15.25 3.417-15.25 10.25 0 3.333 1.292 5.958 3.875 7.875 2.583 1.917 6.167 2.875 10.75 2.875s8.542-1.02 11.875-3.063c3.333-2.041 5.75-4.937 7.25-8.687v-9.25ZM86.5 45.375c2.333 0 4.27.73 5.813 2.188 1.541 1.458 2.312 3.27 2.312 5.437 0 2.25-.77 4.146-2.313 5.688C90.772 60.228 88.834 61 86.5 61s-4.27-.75-5.813-2.25c-1.541-1.5-2.312-3.333-2.312-5.5s.77-4.02 2.313-5.563c1.541-1.541 3.479-2.312 5.812-2.312Z"/>
    </g>
  </g>
</svg>
